X: 873
T: Boil the breakfast early
C: anon.
O: Ireland
B: Francis O'Neill: "The Dance Music of Ireland" (1907) no. 789
R: Reel
Z: Transcribed by Frank Nordberg - http://www.musicaviva.com
F: http://www.musicaviva.com/abc/tunes/ireland/oneill-1001/oneill-1001-078
9.abc
M: C|
L: 1/8
K: G
GBB(G AF)DF|GBB(d c2)BA|GBB(G AF)DF|GEEG c2(BA)|GBB(G AF)DF|GBB(d c2)Bc|d
(BcA) BGAF|(GE)(EG) c2(Bc)||
dA (3AAA (dA)FA|dAA(^c d)efe|dA (3AAA (dA)FA|GEEG c2(Bc)|dA (3AAA (dA)FA|
d(^cde) dgfe|d(BcA) BGAF|(GE)(EG) c2(BA)|]
W:
W:
W: From Musica Viva - http://www.musicaviva.com
W: the Internet center for free sheet music downloads.


